src/assets/icons/richtext-heading.svg

<svg width="16" height="16" viewBox="0 0 16 16" fill="none" xmlns="http://www.w3.org/2000/svg">
<g clip-path="url(#clip0_13264_38278)">
<path fill-rule="evenodd" clip-rule="evenodd" d="M1.84447 0.0220943C1.76374 0.0310845 1.62338 0.0595599 1.53256 0.0853748C0.7314 0.313086 0.137638 0.996219 0.027186 1.81734C-0.00547254 2.05999 -0.0109584 3.87593 0.0204342 4.04778C0.0831276 4.39102 0.386834 4.70098 0.730428 4.77239C0.868254 4.80103 1.10173 4.78504 1.23502 4.73783C1.47805 4.65176 1.69204 4.43887 1.79357 4.18215C1.82207 4.11012 1.82645 3.99165 1.83495 3.06171C1.84423 2.04766 1.84541 2.02054 1.8823 1.97117C1.90311 1.94332 1.94292 1.9035 1.97079 1.8827C2.0213 1.84497 2.02859 1.84485 4.55207 1.83997L7.08268 1.83507V8.00014V14.1652H5.98347C4.95617 14.1652 4.87695 14.1675 4.77257 14.2C4.6236 14.2463 4.50031 14.3282 4.37433 14.4642C4.24948 14.5991 4.17583 14.7471 4.14624 14.9225C4.07068 15.3704 4.3172 15.7869 4.75255 15.947L4.87181 15.9908H8.00006H11.1283L11.2476 15.947C11.4485 15.8733 11.5914 15.7638 11.7054 15.5963C11.9496 15.2376 11.9158 14.7775 11.6218 14.46C11.4996 14.328 11.3752 14.2459 11.2276 14.2C11.1232 14.1675 11.044 14.1652 10.0167 14.1652H8.91744V8.00014V1.83507L11.4481 1.83997C13.9715 1.84485 13.9788 1.84497 14.0293 1.8827C14.0572 1.9035 14.097 1.94332 14.1178 1.97117C14.1547 2.02056 14.1559 2.04738 14.1648 3.06171C14.174 4.09636 14.1742 4.10214 14.2166 4.20698C14.3099 4.4381 14.5356 4.65655 14.7651 4.73783C14.8984 4.78504 15.1319 4.80103 15.2697 4.77239C15.6133 4.70098 15.917 4.39102 15.9797 4.04778C16.0058 3.90503 16.0064 2.11777 15.9804 1.87626C15.876 0.903435 15.0971 0.124565 14.1243 0.020076C13.9004 -0.00397756 2.06101 -0.00203271 1.84447 0.0220943Z" fill="currentColor"/>
</g>
<defs>
<clipPath id="clip0_13264_38278">
<rect width="16" height="16" fill="white"/>
</clipPath>
</defs>
</svg>

<svg xmlns="http://www.w3.org/2000/svg" width="16" height="16" fill="none">
  <g clip-path="url(#a)">
    <path fill="currentColor" fill-rule="evenodd" d="M1.844.022A2.098 2.098 0 0 0 .027 1.817C-.005 2.06-.01 3.876.02 4.047a.95.95 0 0 0 .71.725c.138.029.372.013.505-.034a.978.978 0 0 0 .559-.556c.028-.072.032-.19.041-1.12.01-1.014.01-1.041.047-1.09a.525.525 0 0 1 .089-.09c.05-.037.058-.037 2.581-.042l2.53-.005v12.33H5.984c-1.027 0-1.106.003-1.21.035a.885.885 0 0 0-.399.264.865.865 0 0 0-.228.458.916.916 0 0 0 .607 1.025l.119.044h6.256l.12-.044a.894.894 0 0 0 .457-.35.903.903 0 0 0-.083-1.137.88.88 0 0 0-.394-.26c-.105-.032-.184-.035-1.211-.035h-1.1V1.835l2.531.005c2.524.005 2.53.005 2.581.043.028.02.068.06.089.088.037.05.038.076.047 1.09.009 1.035.01 1.041.052 1.146.093.231.319.45.548.53.133.048.367.064.505.035a.95.95 0 0 0 .71-.724c.026-.143.026-1.93 0-2.172A2.1 2.1 0 0 0 14.124.02C13.9-.004 2.061-.002 1.844.022Z" clip-rule="evenodd"/>
  </g>
  <defs>
    <clipPath id="a">
      <path fill="#fff" d="M0 0h16v16H0z"/>
    </clipPath>
  </defs>
</svg>
